src/assets/images/analysis/jcb.svg

<?xml version="1.0" encoding="UTF-8"?>
<svg width="23px" height="16px" viewBox="0 0 23 16" version="1.1" xmlns="http://www.w3.org/2000/svg" xmlns:xlink="http://www.w3.org/1999/xlink">
    <title>SVG Layer</title>
    <g id="Design" stroke="none" stroke-width="1" fill="none" fill-rule="evenodd">
        <g id="2" transform="translate(-321.000000, -2960.000000)" fill-rule="nonzero">
            <g id="Group-18" transform="translate(115.000000, 2591.000000)">
                <g id="Group-19" transform="translate(90.000000, 90.000000)">
                    <g id="Group-7" transform="translate(0.000000, 279.000000)">
                        <g id="SVG-Layer" transform="translate(116.000000, 0.000000)">
                            <path d="M0.20535714,16 L4.72321429,16 C5.75102679,16 6.98214286,14.8053333 6.98214286,13.8666667 L6.98214286,0 L2.46428571,0 C1.43647321,0 0.20535714,1.19466667 0.20535714,3.2 L0.20535714,16 Z" id="Path" fill="#047AB1"></path>
                            <path d="M2.76924107,10.8160002 C1.90190548,10.8161606 1.03884549,10.7012603 0.20535714,10.4746667 L0.20535714,9.30133333 C0.85214588,9.67903764 1.59145759,9.89217432 2.35133929,9.92 C3.22102679,9.92 3.70669643,9.344 3.70669643,8.55466667 L3.70669643,5.33333333 L5.85267857,5.33333333 L5.85267857,8.55466667 C5.85267857,9.81333333 5.15241071,10.8160002 2.76924107,10.8160002 L2.76924107,10.8160002 Z" id="Path" fill="#FFFFFF"></path>
                            <path d="M8.11160714,16 L12.6294643,16 C13.6572768,16 14.8883929,14.8053333 14.8883929,13.8666667 L14.8883929,0 L10.3705357,0 C9.34272321,0 8.11160714,1.19466667 8.11160714,3.2 L8.11160714,16 Z" id="Path" fill="#D42D06"></path>
                            <path d="M8.11160714,6.08 C8.76669643,5.48266667 9.89616071,5.10933333 11.7258929,5.19466667 C12.7198214,5.23733333 13.7589286,5.51466667 13.7589286,5.51466667 L13.7589286,6.69866667 C13.1646055,6.35919197 12.4965528,6.15132011 11.8049554,6.09066667 C10.4157143,5.97333333 9.56861607,6.70933333 9.56861607,8 C9.56861607,9.29066667 10.4157143,10.0266667 11.8049554,9.92 C12.4969739,9.85393445 13.1645896,9.64255408 13.7589286,9.30133333 L13.7589286,10.4746667 C13.7589286,10.4746667 12.7198214,10.7626667 11.7258929,10.8053333 C9.89616071,10.8906667 8.76669643,10.5173333 8.11160714,9.92 L8.11160714,6.08 Z" id="Path" fill="#FFFFFF"></path>
                            <path d="M16.0178571,16 L20.5357143,16 C21.5635268,16 22.7946429,14.8053333 22.7946429,13.8666667 L22.7946429,0 L18.2767857,0 C17.2489732,0 16.0178571,1.19466667 16.0178571,3.2 L16.0178571,16 Z" id="Path" fill="#67B637"></path>
                            <path d="M21.6651786,9.28 C21.6651786,10.1333333 20.9649107,10.6666667 20.0274554,10.6666667 L16.0178571,10.6666667 L16.0178571,5.33333333 L19.6660268,5.33333333 L19.9258036,5.344 C20.7503125,5.38666667 21.3602232,5.84533333 21.3602232,6.63466667 C21.3602232,7.25333333 20.9423214,7.78666667 20.1855804,7.91466667 L20.1855804,7.94666667 C21.0213839,8 21.6651786,8.50133333 21.6651786,9.28 Z M18.7850446,6.176 C18.7364342,6.16913342 18.6873648,6.16556871 18.6382143,6.16533333 L17.2828571,6.16533333 L17.2828571,7.50933333 L18.7850446,7.50933333 C19.0674107,7.44533333 19.3045982,7.2 19.3045982,6.83733333 C19.3045982,6.47466667 19.0674107,6.22933333 18.7850446,6.176 L18.7850446,6.176 Z M18.9544643,8.352 C18.8947093,8.34313832 18.8342084,8.33956725 18.77375,8.34133333 L17.2828571,8.34133333 L17.2828571,9.80266667 L18.77375,9.80266667 L18.9544643,9.78133333 C19.2368304,9.71733333 19.4740179,9.44 19.4740179,9.06666667 C19.4740179,8.69333333 19.248125,8.42666667 18.9544643,8.352 L18.9544643,8.352 Z" id="Shape" fill="#FFFFFF"></path>
                        </g>
                    </g>
                </g>
            </g>
        </g>
    </g>
</svg>

<svg width="23" height="16" xmlns="http://www.w3.org/2000/svg"><g fill-rule="nonzero" fill="none"><path d="M.205 16h4.518c1.028 0 2.26-1.195 2.26-2.133V0H2.463C1.436 0 .205 1.195.205 3.2V16z" fill="#047AB1"/><path d="M2.77 10.816a9.77 9.77 0 01-2.565-.341V9.3c.647.378 1.386.591 2.146.619.87 0 1.356-.576 1.356-1.365V5.333h2.146v3.222c0 1.258-.7 2.261-3.084 2.261z" fill="#FFF"/><path d="M8.112 16h4.517c1.028 0 2.26-1.195 2.26-2.133V0H10.37C9.343 0 8.11 1.195 8.11 3.2V16z" fill="#D42D06"/><path d="M8.112 6.08c.655-.597 1.784-.97 3.614-.885.994.042 2.033.32 2.033.32v1.184a4.785 4.785 0 00-1.954-.608c-1.39-.118-2.236.618-2.236 1.909 0 1.29.847 2.027 2.236 1.92a4.853 4.853 0 001.954-.619v1.174s-1.04.288-2.033.33c-1.83.086-2.96-.288-3.614-.885V6.08z" fill="#FFF"/><path d="M16.018 16h4.518c1.028 0 2.259-1.195 2.259-2.133V0h-4.518c-1.028 0-2.26 1.195-2.26 3.2V16z" fill="#67B637"/><path d="M21.665 9.28c0 .853-.7 1.387-1.638 1.387h-4.01V5.333h3.649l.26.011c.824.043 1.434.501 1.434 1.29 0 .62-.418 1.153-1.174 1.28v.033c.835.053 1.48.554 1.48 1.333zm-2.88-3.104a1.087 1.087 0 00-.147-.01h-1.355v1.343h1.502a.667.667 0 00.52-.672c0-.362-.238-.608-.52-.661zm.17 2.176a1.028 1.028 0 00-.181-.01h-1.491v1.46h1.49l.181-.02c.283-.065.52-.342.52-.715 0-.374-.226-.64-.52-.715z" fill="#FFF"/></g></svg>
